icons-rebrand/svg/backspace-light.svg

<svg width="32" height="32" viewBox="0 0 32 32" fill="none" xmlns="http://www.w3.org/2000/svg">
<path d="M24.998 6.5H12.565C11.9516 6.50079 11.3448 6.62669 10.7817 6.86998C10.2186 7.11328 9.711 7.46886 9.29 7.915L2.907 14.532C2.6546 14.8011 2.5101 15.1538 2.50106 15.5227C2.49202 15.8915 2.61908 16.2508 2.858 16.532L9.255 23.904C9.67692 24.4045 10.2032 24.8067 10.7969 25.0824C11.3906 25.3581 12.0374 25.5006 12.692 25.5H24.998C26.1911 25.4989 27.3351 25.0245 28.1788 24.1808C29.0225 23.3371 29.4969 22.1931 29.498 21V11C29.4967 9.80693 29.0221 8.66311 28.1785 7.81948C27.3349 6.97585 26.1911 6.50132 24.998 6.5ZM28.498 21C28.4969 21.9279 28.1279 22.8176 27.4717 23.4737C26.8156 24.1299 25.9259 24.4989 24.998 24.5H12.692C12.1818 24.5001 11.6778 24.3885 11.2154 24.173C10.7529 23.9576 10.3432 23.6436 10.015 23.253L3.618 15.881C3.53914 15.7883 3.49701 15.67 3.49959 15.5483C3.50217 15.4267 3.54928 15.3102 3.632 15.221L10.015 8.604C10.3426 8.25616 10.7377 7.97883 11.1761 7.789C11.6146 7.59917 12.0872 7.50083 12.565 7.5H24.998C25.9259 7.50106 26.8156 7.87015 27.4717 8.5263C28.1279 9.18244 28.4969 10.0721 28.498 11V21Z" fill="#0F0F0F"/>
<path d="M24.3541 11.647C24.2602 11.5535 24.1331 11.501 24.0006 11.501C23.8681 11.501 23.7409 11.5535 23.6471 11.647L20.0001 15.293L16.3541 11.647C16.2598 11.5559 16.1335 11.5055 16.0024 11.5066C15.8713 11.5078 15.7458 11.5603 15.6531 11.653C15.5604 11.7458 15.5079 11.8712 15.5067 12.0023C15.5056 12.1334 15.556 12.2597 15.6471 12.354L19.2931 16L15.6461 19.647C15.5983 19.6931 15.5602 19.7483 15.534 19.8093C15.5078 19.8703 15.494 19.9359 15.4934 20.0023C15.4929 20.0686 15.5055 20.1345 15.5306 20.1959C15.5558 20.2574 15.5929 20.3132 15.6399 20.3602C15.6868 20.4071 15.7426 20.4442 15.8041 20.4694C15.8655 20.4945 15.9314 20.5072 15.9978 20.5066C16.0641 20.506 16.1298 20.4922 16.1908 20.466C16.2518 20.4398 16.3069 20.4017 16.3531 20.354L20.0001 16.708L23.6461 20.354C23.6922 20.4017 23.7473 20.4398 23.8084 20.466C23.8694 20.4922 23.935 20.506 24.0014 20.5066C24.0677 20.5072 24.1336 20.4945 24.195 20.4694C24.2565 20.4442 24.3123 20.4071 24.3593 20.3602C24.4062 20.3132 24.4433 20.2574 24.4685 20.1959C24.4936 20.1345 24.5063 20.0686 24.5057 20.0023C24.5051 19.9359 24.4913 19.8703 24.4651 19.8093C24.4389 19.7483 24.4008 19.6931 24.3531 19.647L20.7071 16.001L24.3531 12.354C24.3996 12.3076 24.4365 12.2525 24.4617 12.1918C24.4869 12.1312 24.4999 12.0661 24.4999 12.0005C24.4999 11.9348 24.4869 11.8697 24.4617 11.8091C24.4365 11.7484 24.3996 11.6933 24.3531 11.647H24.3541Z" fill="#0F0F0F"/>
</svg>

<svg width="32" height="32" viewBox="0 0 32 32" fill="none" xmlns="http://www.w3.org/2000/svg"><path d="M24.998 6.5H12.565A4.511 4.511 0 0 0 9.29 7.915l-6.383 6.617a1.502 1.502 0 0 0-.049 2l6.397 7.372a4.49 4.49 0 0 0 3.437 1.596h12.306a4.504 4.504 0 0 0 4.5-4.5V11a4.505 4.505 0 0 0-4.5-4.5zm3.5 14.5a3.504 3.504 0 0 1-3.5 3.5H12.692a3.496 3.496 0 0 1-2.677-1.247l-6.397-7.372a.497.497 0 0 1 .014-.66l6.383-6.617a3.511 3.511 0 0 1 2.55-1.104h12.433a3.504 3.504 0 0 1 3.5 3.5v10z" fill="#0F0F0F"/><path d="M24.354 11.647a.501.501 0 0 0-.707 0L20 15.293l-3.646-3.646a.5.5 0 0 0-.707.707L19.293 16l-3.647 3.647a.5.5 0 1 0 .707.707L20 16.708l3.646 3.646a.5.5 0 1 0 .707-.707l-3.646-3.646 3.646-3.647a.499.499 0 0 0 0-.707z" fill="#0F0F0F"/></svg>
